X:61
T:Danny Ab's* (slide)
T:Dan O'Keeffe's  
B:CRE 2.086 (gan ainm)
F:file ID: cre.2/061danny
Q:200
L:1/8
M:12/8
R:jig
K:Am
A2e e2d BAB d2B|A2e e2d B2G G3|
A2e e2d BAB d2B|BAB ded B2A A3:|
e2a a2b a2g e2d|e2a a2b a2g e2^f|
g2z g2e dBA G2A|BAB ded B2A A3:|

%%%

